Papirus/22x22/panel/indicator-sensors-cpu.svg

<?xml version="1.0" encoding="UTF-8" standalone="no"?>
<svg id="svg2" xmlns:rdf="http://www.w3.org/1999/02/22-rdf-syntax-ns#" xmlns="http://www.w3.org/2000/svg" viewBox="0 0 22 22" width="22" version="1.1" xmlns:cc="http://creativecommons.org/ns#" height="22" xmlns:dc="http://purl.org/dc/elements/1.1/">
 <metadata id="metadata28">
  <rdf:RDF>
   <cc:Work rdf:about="">
    <dc:format>image/svg+xml</dc:format>
    <dc:type rdf:resource="http://purl.org/dc/dcmitype/StillImage"/>
    <dc:title/>
   </cc:Work>
  </rdf:RDF>
 </metadata>
 <path id="rect6" d="m8.25 3c-0.1385 0-0.25 0.1115-0.25 0.25v1.5c0 0.1385 0.1115 0.25 0.25 0.25h0.5c0.1385 0 0.25-0.1115 0.25-0.25v-1.5c0-0.1385-0.1115-0.25-0.25-0.25h-0.5zm4 0c-0.138 0-0.25 0.1115-0.25 0.25v1.5c0 0.1385 0.112 0.25 0.25 0.25h0.5c0.138 0 0.25-0.1115 0.25-0.25v-1.5c0-0.1385-0.112-0.25-0.25-0.25h-0.5zm4 0c-0.138 0-0.25 0.1115-0.25 0.25v1.5c0 0.1385 0.112 0.25 0.25 0.25h0.5c0.138 0 0.25-0.1115 0.25-0.25v-1.5c0-0.1385-0.112-0.25-0.25-0.25h-0.5zm-10 2c-0.6925 0-1.25 0.5575-1.25 1.25v0.7754c0.5716 0.1154 1 0.618 1 1.2246v0.5c0 0.6066-0.4284 1.1092-1 1.2246v1.0504c0.5716 0.116 1 0.618 1 1.225v0.5c0 0.607-0.4284 1.109-1 1.225v1.05c0.5716 0.116 1 0.618 1 1.225v0.5c0 0.599-0.418 1.095-0.9785 1.219 0.1034 0.587 0.6111 1.031 1.2285 1.031h11.5c0.692 0 1.25-0.558 1.25-1.25v-11.5c0-0.6086-0.431-1.1113-1.006-1.2246-0.014 0.5414-0.449 0.9746-0.994 0.9746h-1c-0.554 0-1-0.446-1-1h-1c0 0.554-0.446 1-1 1h-1c-0.554 0-1-0.446-1-1h-1c0 0.554-0.446 1-1 1h-1c-0.554 0-1-0.446-1-1h-0.75zm1.75 2h9c0.554 0 1 0.446 1 1v9c0 0.554-0.446 1-1 1h-9c-0.554 0-1-0.446-1-1v-9c0-0.554 0.446-1 1-1zm-4.75 1c-0.1385 0-0.25 0.1115-0.25 0.25v0.5c0 0.1385 0.1115 0.25 0.25 0.25h1.5c0.1385 0 0.25-0.1115 0.25-0.25v-0.5c0-0.1385-0.1115-0.25-0.25-0.25h-1.5zm5 0c-0.1385 0-0.25 0.1115-0.25 0.25v8.5c0 0.138 0.1115 0.25 0.25 0.25h8.5c0.138 0 0.25-0.112 0.25-0.25v-8.5c0-0.1385-0.112-0.25-0.25-0.25h-8.5zm-5 4c-0.1385 0-0.25 0.112-0.25 0.25v0.5c0 0.138 0.1115 0.25 0.25 0.25h1.5c0.1385 0 0.25-0.112 0.25-0.25v-0.5c0-0.138-0.1115-0.25-0.25-0.25h-1.5zm0 4c-0.1385 0-0.25 0.112-0.25 0.25v0.5c0 0.138 0.1115 0.25 0.25 0.25h1.5c0.1385 0 0.25-0.112 0.25-0.25v-0.5c0-0.138-0.1115-0.25-0.25-0.25h-1.5z" fill="#fff"/>
</svg>

<?xml version="1.0" encoding="UTF-8" standalone="no"?>
<svg xmlns:dc="http://purl.org/dc/elements/1.1/" xmlns:cc="http://creativecommons.org/ns#" xmlns:rdf="http://www.w3.org/1999/02/22-rdf-syntax-ns#" xmlns:svg="http://www.w3.org/2000/svg" xmlns="http://www.w3.org/2000/svg" id="svg2" viewBox="0 0 22 22" version="1.1" width="22" height="22">
    <metadata id="metadata28">
        <rdf:RDF>
            <cc:Work rdf:about="">
                <dc:format>
                    image/svg+xml
                </dc:format>
                <dc:type rdf:resource="http://purl.org/dc/dcmitype/StillImage"/>
                <dc:title/>
            </cc:Work>
        </rdf:RDF>
    </metadata>
    <path id="rect6" d="M 8.25 3 C 8.1115 3 8 3.1115 8 3.25 L 8 4.75 C 8 4.8885 8.1115 5 8.25 5 L 8.75 5 C 8.8885 5 9 4.8885 9 4.75 L 9 3.25 C 9 3.1115 8.8885 3 8.75 3 L 8.25 3 z M 12.25 3 C 12.1115 3 12 3.1115 12 3.25 L 12 4.75 C 12 4.8885 12.1115 5 12.25 5 L 12.75 5 C 12.8885 5 13 4.8885 13 4.75 L 13 3.25 C 13 3.1115 12.8885 3 12.75 3 L 12.25 3 z M 16.25 3 C 16.1115 3 16 3.1115 16 3.25 L 16 4.75 C 16 4.8885 16.1115 5 16.25 5 L 16.75 5 C 16.8885 5 17 4.8885 17 4.75 L 17 3.25 C 17 3.1115 16.8885 3 16.75 3 L 16.25 3 z M 6.25 5 C 5.5575 5 5 5.5575 5 6.25 L 5 7.0253906 C 5.5716 7.1407906 6 7.6434 6 8.25 L 6 8.75 C 6 9.3566 5.5716 9.8592094 5 9.9746094 L 5 11.025391 C 5.5716 11.141391 6 11.643 6 12.25 L 6 12.75 C 6 13.357 5.5716 13.858609 5 13.974609 L 5 15.025391 C 5.5716 15.141391 6 15.643 6 16.25 L 6 16.75 C 6 17.349 5.5819844 17.84475 5.0214844 17.96875 C 5.1248844 18.55575 5.6326 19 6.25 19 L 17.75 19 C 18.442 19 19 18.442 19 17.75 L 19 6.25 C 19 5.6414 18.569141 5.1386906 17.994141 5.0253906 C 17.980141 5.5667906 17.545 6 17 6 L 16 6 C 15.446 6 15 5.554 15 5 L 14 5 C 14 5.554 13.554 6 13 6 L 12 6 C 11.446 6 11 5.554 11 5 L 10 5 C 10 5.554 9.554 6 9 6 L 8 6 C 7.446 6 7 5.554 7 5 L 6.25 5 z M 8 7 L 17 7 C 17.554 7 18 7.446 18 8 L 18 17 C 18 17.554 17.554 18 17 18 L 8 18 C 7.446 18 7 17.554 7 17 L 7 8 C 7 7.446 7.446 7 8 7 z M 3.25 8 C 3.1115 8 3 8.1115 3 8.25 L 3 8.75 C 3 8.8885 3.1115 9 3.25 9 L 4.75 9 C 4.8885 9 5 8.8885 5 8.75 L 5 8.25 C 5 8.1115 4.8885 8 4.75 8 L 3.25 8 z M 8.25 8 C 8.1115 8 8 8.1115 8 8.25 L 8 16.75 C 8 16.8885 8.1115 17 8.25 17 L 16.75 17 C 16.8885 17 17 16.8885 17 16.75 L 17 8.25 C 17 8.1115 16.8885 8 16.75 8 L 8.25 8 z M 3.25 12 C 3.1115 12 3 12.1115 3 12.25 L 3 12.75 C 3 12.8885 3.1115 13 3.25 13 L 4.75 13 C 4.8885 13 5 12.8885 5 12.75 L 5 12.25 C 5 12.1115 4.8885 12 4.75 12 L 3.25 12 z M 3.25 16 C 3.1115 16 3 16.1115 3 16.25 L 3 16.75 C 3 16.8885 3.1115 17 3.25 17 L 4.75 17 C 4.8885 17 5 16.8885 5 16.75 L 5 16.25 C 5 16.1115 4.8885 16 4.75 16 L 3.25 16 z " style="fill:#ffffff;fill-opacity:1;opacity:1"/>
</svg>
